X:1129
T:Jackson's Tunet.
M:2/4
L:1/16
Q:1/4=104
Z:Jack Campin * www.campin.me.uk * 2009
K:D
 A2 |dAFA dA`FA |d2f4    ed | ec``Ac   ec``Ac |e2 g4      !
(fe)|fdAd f2(ed)|ecAc e2(dc)|(df)(dB) (ce)(cA)|E2^G2``A2:|!
 A2 |dAFA d2^c2 |BGAF G2`B2 | eB`^GB   e2``d2 |cA`B^G A2  !
(fg)|afda a2(gf)|gece g2`fe |(fa)`fd   eg``ec |d2`D2``D2:|

